src/images_karasa_jaga_svg/cmd/sc_symbolshapes.lightning.svg

<svg height="16" viewBox="0 0 16 16" width="16" xmlns="http://www.w3.org/2000/svg" xmlns:xlink="http://www.w3.org/1999/xlink"><linearGradient id="a" gradientUnits="userSpaceOnUse" x1="64" x2="64" y1="128" y2="0"><stop offset="0" stop-color="#fff"/><stop offset=".59375" stop-color="#fff"/><stop offset=".84375" stop-color="#f1f1f1"/><stop offset=".90625" stop-color="#eaeaea"/><stop offset="1" stop-color="#dfdfdf"/></linearGradient><linearGradient id="b" gradientUnits="userSpaceOnUse" x1="24" x2="104" y1="64" y2="64"><stop offset="0" stop-color="#7c9fcf"/><stop offset=".5" stop-color="#7c9ece"/><stop offset="1" stop-color="#7b9dcf"/></linearGradient><g fill-rule="evenodd" transform="matrix(.125 0 0 .125 .000087 0)"><path d="m60-.19335938a8.1938039 8.1938039 0 0 0 -7.328125 4.52929688l-3.859375 7.7187505-23.837891 39.730468a8.1938039 8.1938039 0 0 0 7.025391 12.408203h22.953125l-14.351563 17.939453-9.785156-14.677734a8.1938039 8.1938039 0 0 0 -15.009765 4.544922v48a8.1938039 8.1938039 0 0 0 8.193359 8.19336h48a8.1938039 8.1938039 0 0 0 4.544922-15.00977l-16.228516-10.81836 49.849614-56.970699a8.1938039 8.1938039 0 0 0 -6.92579-13.552734l-27.507808 2.558594 18.425781-20.996094a8.1938039 8.1938039 0 0 0 -6.158203-13.59765638z" fill="url(#b)"/><path d="m56 16-24 40h40l-32 40-16-24v48h48l-24-16 56-64-48 4.464466 32-36.464466h-28z" fill="url(#a)"/></g></svg>

<?xml version="1.0" encoding="UTF-8" standalone="no"?>
<!-- Created with Inkscape (http://www.inkscape.org/) -->

<svg
   xmlns:dc="http://purl.org/dc/elements/1.1/"
   xmlns:cc="http://creativecommons.org/ns#"
   xmlns:rdf="http://www.w3.org/1999/02/22-rdf-syntax-ns#"
   xmlns:svg="http://www.w3.org/2000/svg"
   xmlns="http://www.w3.org/2000/svg"
   xmlns:xlink="http://www.w3.org/1999/xlink"
   xmlns:sodipodi="http://sodipodi.sourceforge.net/DTD/sodipodi-0.dtd"
   xmlns:inkscape="http://www.inkscape.org/namespaces/inkscape"
   version="1.1"
   id="svg2"
   width="128"
   height="128"
   viewBox="0 0 128 128"
   sodipodi:docname="sc_symbolshapes.lightning.svg"
   inkscape:export-filename="/home/rizmut/Dokumen/Rizmut/Github/libreoffice-style-karasa-jaga/build/images_karasa_jaga/cmd/sc_symbolshapes.lightning.png"
   inkscape:export-xdpi="12"
   inkscape:export-ydpi="12"
   inkscape:version="0.92.3 (unknown)">
  <metadata
     id="metadata8">
    <rdf:RDF>
      <cc:Work
         rdf:about="">
        <dc:format>image/svg+xml</dc:format>
        <dc:type
           rdf:resource="http://purl.org/dc/dcmitype/StillImage" />
        <dc:title></dc:title>
      </cc:Work>
    </rdf:RDF>
  </metadata>
  <defs
     id="defs6">
    <linearGradient
       id="linearGradient3369">
      <stop
         id="stop3372"
         offset="0"
         style="stop-color:#ffffff;stop-opacity:1;" />
      <stop
         style="stop-color:#ffffff;stop-opacity:1;"
         offset="0.59375"
         id="stop3374" />
      <stop
         style="stop-color:#f1f1f1;stop-opacity:1;"
         offset="0.84375"
         id="stop3376" />
      <stop
         id="stop3378"
         offset="0.90625"
         style="stop-color:#eaeaea;stop-opacity:1;" />
      <stop
         id="stop3384"
         offset="1"
         style="stop-color:#dfdfdf;stop-opacity:1;" />
    </linearGradient>
    <linearGradient
       id="linearGradient7422">
      <stop
         style="stop-color:#7c9fcf;stop-opacity:1"
         offset="0"
         id="stop7424" />
      <stop
         id="stop5348"
         offset="0.5"
         style="stop-color:#7c9ece;stop-opacity:1" />
      <stop
         id="stop7426"
         offset="1"
         style="stop-color:#7b9dcf;stop-opacity:1" />
    </linearGradient>
    <linearGradient
       inkscape:collect="always"
       xlink:href="#linearGradient3369"
       id="linearGradient1169"
       x1="64"
       y1="128"
       x2="64"
       y2="0"
       gradientUnits="userSpaceOnUse" />
    <linearGradient
       inkscape:collect="always"
       xlink:href="#linearGradient7422"
       id="linearGradient1179"
       x1="24"
       y1="64"
       x2="104"
       y2="64"
       gradientUnits="userSpaceOnUse" />
  </defs>
  <sodipodi:namedview
     pagecolor="#ffffff"
     bordercolor="#666666"
     borderopacity="1"
     objecttolerance="10"
     gridtolerance="10"
     guidetolerance="10"
     inkscape:pageopacity="0"
     inkscape:pageshadow="2"
     inkscape:window-width="1366"
     inkscape:window-height="706"
     id="namedview4"
     showgrid="true"
     inkscape:snap-page="true"
     inkscape:snap-global="true"
     inkscape:zoom="2"
     inkscape:cx="12.679725"
     inkscape:cy="126.0583"
     inkscape:window-x="0"
     inkscape:window-y="0"
     inkscape:window-maximized="1"
     inkscape:current-layer="svg2"
     inkscape:snap-smooth-nodes="true"
     showguides="false"
     inkscape:guide-bbox="true">
    <inkscape:grid
       type="xygrid"
       id="grid27"
       spacingx="8"
       spacingy="8"
       empspacing="2" />
    <sodipodi:guide
       position="51.972346,56"
       orientation="0,1"
       id="guide841"
       inkscape:locked="false" />
  </sodipodi:namedview>
  <g
     id="g1205">
    <path
       d="M 60,-0.19335938 A 8.1938039,8.1938039 0 0 0 52.671875,4.3359375 L 48.8125,12.054688 24.974609,51.785156 A 8.1938039,8.1938039 0 0 0 32,64.193359 H 54.953125 L 40.601562,82.132812 30.816406,67.455078 A 8.1938039,8.1938039 0 0 0 15.806641,72 v 48 A 8.1938039,8.1938039 0 0 0 24,128.19336 h 48 a 8.1938039,8.1938039 0 0 0 4.544922,-15.00977 L 60.316406,102.36523 110.16602,45.394531 A 8.1938039,8.1938039 0 0 0 103.24023,31.841797 L 75.732422,34.400391 94.158203,13.404297 A 8.1938039,8.1938039 0 0 0 88,-0.19335938 Z"
       id="path1171"
       style="fill:url(#linearGradient1179);fill-opacity:1;fill-rule:evenodd;stroke:none;stroke-width:1px;stroke-linecap:butt;stroke-linejoin:miter;stroke-opacity:1"
       inkscape:original="M 60 8 L 56 16 L 32 56 L 72 56 L 40 96 L 24 72 L 24 120 L 72 120 L 48 104 L 104 40 L 56 44.464844 L 88 8 L 60 8 z "
       inkscape:radius="8.1929846"
       sodipodi:type="inkscape:offset" />
    <path
       sodipodi:nodetypes="ccccccccccccc"
       inkscape:connector-curvature="0"
       id="path1161"
       d="M 56,16 32,56 H 72 L 40,96 24,72 v 48 H 72 L 48,104 104,40 56,44.464466 88,8 H 60 Z"
       style="fill:url(#linearGradient1169);fill-rule:evenodd;stroke:none;stroke-width:1px;stroke-linecap:butt;stroke-linejoin:miter;stroke-opacity:1;fill-opacity:1" />
    <g
       transform="matrix(0.66585891,-0.66585891,0.83232364,0.83232364,-31.883682,53.346258)"
       id="g1125" />
  </g>
</svg>
